src/ios-folder-outline.svg

<?xml version="1.0" encoding="utf-8"?>
<!-- Generated by IcoMoon.io -->
<!DOCTYPE svg PUBLIC "-//W3C//DTD SVG 1.1//EN" "http://www.w3.org/Graphics/SVG/1.1/DTD/svg11.dtd">
<svg version="1.1" xmlns="http://www.w3.org/2000/svg" xmlns:xlink="http://www.w3.org/1999/xlink" width="512" height="512" viewBox="0 0 512 512">
<path fill="#000000" d="M457 96h-242c-2.791 0-4.271-0.585-6.094-2.408l-22.669-22.663c-4.872-4.596-8.876-6.929-17.237-6.929h-112c-13.785 0-25 10.317-25 23v336c0 13.317 11.683 25 25 25h400c12.683 0 23-11.215 23-25v-304c0-13.327-9.673-23-23-23zM57 80h112c3.497 0 3.737 0.189 6.175 2.488l22.417 22.418c4.84 4.84 10.372 7.094 17.408 7.094h242c4.448 0 7 2.552 7 7v42.376c-2.504-0.888-5.195-1.376-8-1.376h-400c-2.805 0-5.496 0.488-8 1.376v-74.376c0-4.323 4.672-7 9-7zM464 423c0 4.328-2.677 9-7 9h-400c-4.458 0-9-4.542-9-9v-239c0-4.411 3.589-8 8-8h400c4.411 0 8 3.589 8 8v239z"></path>
</svg>

<?xml version="1.0" encoding="utf-8"?>
<!-- Generator: Adobe Illustrator 16.2.1, SVG Export Plug-In . SVG Version: 6.00 Build 0)  -->
<!DOCTYPE svg PUBLIC "-//W3C//DTD SVG 1.1//EN" "http://www.w3.org/Graphics/SVG/1.1/DTD/svg11.dtd">
<svg version="1.1" id="Layer_1" xmlns="http://www.w3.org/2000/svg" xmlns:xlink="http://www.w3.org/1999/xlink" x="0px" y="0px"
	 width="512px" height="512px" viewBox="0 0 512 512" enable-background="new 0 0 512 512" xml:space="preserve">
<path d="M457,96H215c-2.791,0-4.271-0.585-6.094-2.408l-22.501-22.501l-0.168-0.162C181.365,66.333,177.361,64,169,64H57
	c-13.785,0-25,10.317-25,23v336c0,13.317,11.683,25,25,25h400c12.683,0,23-11.215,23-25V119C480,105.673,470.327,96,457,96z M57,80
	h112c3.497,0,3.737,0.189,6.175,2.488l22.417,22.418c4.84,4.84,10.372,7.094,17.408,7.094h242c4.448,0,7,2.552,7,7v42.376
	c-2.504-0.888-5.195-1.376-8-1.376H56c-2.805,0-5.496,0.488-8,1.376V87C48,82.677,52.672,80,57,80z M464,423c0,4.328-2.677,9-7,9H57
	c-4.458,0-9-4.542-9-9V184c0-4.411,3.589-8,8-8h400c4.411,0,8,3.589,8,8V423z"/>
</svg>
